X:43
T:Maid of the Mill. WCF.043
M:6/8
L:1/8
Q:3/8=100
S:Wm Clarke MS, Feltwell, 1858
O:England
A:Norfolk
Z:Transcribed Lyn Law 04/2006
K:D
A|Add dfd|cde a2d|BBB BcA|d3zzA|!
Add dfd|cde a2d|BBB (B2c)|”Sic”A3d2zzA|!
Aaa aba|agf g2f|eef g2a|(d3c2)A|!
Bcd g2e|cdea2f/2d/2|BBB BcA|d3f2a|!
d2a f2a|d2a a2c’|dBB BcA|d3zz|]

